X:1
T:18
T:18
T:Études enfantines op. 37
T:Henry Lemoine
C:Henry Lemoine
%%score { ( 1 2 3 ) | ( 4 5 6 ) }
L:1/8
Q:1/4=145
M:3/4
K:F
V:1 treble nm="Piano" snm="Pno."
V:2 treble 
V:3 treble 
V:4 treble 
V:5 treble 
V:6 treble 
V:1
"^Moderato\n"!p! (!5!d6 |!mf! !4!^c6 |"_cresc." !5!d2 !4!^c2 !5!d2 |!f!!>(! !5!e6)!>)! | %4
!p! (!5!d6 | !5!=c6 | !1!!2!!4![E^G=B]6 | !3!A2-) A!2!A !3!=B^c | (!5!d6 |!mf! !4!^c6 | %10
"_cresc." !5!d2 !4!^c2 !5!d2 |!f!!>(! !5!e6)!>)! |!p! !5!d6 | (!1!!3![GB]6 | Ae ee ee | %15
 d2) z2!fine! |]!p! (!5!d2 | c4 B2 |!<(! !2!A)!4!c cc cc!<)! |!mf!!>(! (c4 B2!>)! |!mp! A4) z2 | %21
!mf! (!3!B4 d2 | !4!c4 !2!A2 | !3!B4 d2 |"_cresc." !4!c4) !3!A2 |!f! [FG]6 | z c cc cc | %27
!>(! !5!c2 !4!B2 !4!G2!>)! |!<(! F2 F2 F2!<)! | (!2!!5![_EA]6 | !1!!4![DB]4) z2 | (!3!!5![c_e]6 | %32
 !4!d6) | (!2!!4![F=B]6 | !1!!5![Ec]4) z2 | (!>!!2!!4![df]6 |!>(! !3![ce]6)!>)! | (!2!!4![G^c]6 | %38
 !1!!5![Fd]4) z2 | (!>!!2!!4![eg]6 |!>(! !3!f6)!>)! |!p! !2!^f6 | !3!g6 |!f!"_cresc." !4!^g6 | %44
 !1!!5![^ca]4 z2 |!f! (!3!!5![df]6 | !4!e4) ([^ce]2 | !5!f6 | %48
 [A^ce]2) z"^poco rallentando""_dim." !1!A !3!A!2!A | !1!A3 !4!A !3!A!2!A | %50
 !1!A3 !4!A !3!A!p!!2!A |!<(! (!2!A2 =B2!<)! ^c2)!D.C.! |] %52
V:2
 z!<(! A AA A!<)!A | z !2!A AA AA | FA GA FA | z !2!A AA AA | z A AA AA | z !1!E EE EE | x6 | %7
 z2 !1!=G4 | z!<(! A AA A!<)!A | z !2!A AA AA | FA GA FA | z !2!A AA AA | z A AA AA | x6 | x6 | %15
 (FA) z2 |] x2 | G6 | x6 | G6 | x6 | FF FF FF | FF FF FF | FF FF FF | FF FF FF | x6 | [EG]4 !1!F2 | %27
 !2!^F!1!D !2!GD !2!EC | x6 | x6 | x6 | x6 | z !1!F FF FF | x6 | x6 | x6 | z !1!G GG GG | x6 | x6 | %39
 x6 | !1!dd dd dd | !1!d6 | !1!dd dd dd | !1!d6 | x6 | x6 | z !1!A AA AA | z !1!A AA AA- | x6 | %49
 x6 | x6 | G6 |] %52
V:3
 !1!F6 | !2!G6 | x6 | !1!G6 | !1!F6 | !3!A6 | x6 | x6 | !1!F6 | !2!G6 | x6 | !1!G6 | !1!F6 | x6 | %14
 G6 | x4 |] x2 | x6 | !1!F6 | x6 | z F FF FF | x6 | x6 | x6 | x6 | x6 | x6 | x6 | x6 | x6 | x6 | %31
 x6 | !2!B6 | x6 | x6 | x6 | x6 | x6 | x6 | x6 | x6 | x6 | d6 | x6 | x6 | x6 | !2!^c4 x2 | !3!d6 | %48
 x6 | x6 | x6 | x6 |] %52
V:4
 (!2!D6 | E6 | D2 E2 D2 | ^C4) z2 | (!>!!2!D6 | E) z z4 |[K:bass] !4!!1!D6 | !2!^CE- E4 | %8
[K:treble] (!2!D6 | E6 | D2 E2 D2 | ^C4) z2 | !1!D6 |[K:bass] z D DD DD | [A,^C]6 | %15
 (!>!D2 .D,) z |] z2 | z =C CC CC | C6 | z =C CC CC | C6 | (!1!D4 !2!B,2 | !3!A,4 C2 | %23
 !1!D4 !2!B,2 | !3!A,4) C2 | z D DD DD | (C2 _B,2 A,2 | B,3) z (!5!!2!!1![C,G,B,]2 | %28
 !3!!1![F,A,]2) z4 | (!1!C4 z2 | !2!B,4 z2 | !3!A,4 z2 | B,4) z2 | (!1!D4 z2 | !2!C4 z2 | %35
 !3!=B,4 z2 | C4) z2 | (!1!E4 z2 | !2!D4 z2 | !3!^C4 z2 | D4) z2 |[K:treble] z !2!D DD DD | %42
 [=B,D]6 | !2!D!1!E EE EE | E4 z z | (!2!!1![DF]6 | !3!!1![^CE]4) (E2 | !2!!1![DF]6 | %48
 [A,^CE]2) z4 | !2!G6 | F6 | !1!E6 |] %52
V:5
 x6 | x6 | x6 | x6 | x6 | x6 |[K:bass] z !5!E, E,E, E,E, | !4!A,6 |[K:treble] x6 | x6 | x6 | x6 | %12
 x6 |[K:bass] !5!G,6 | x6 | x4 |] x2 | (!5!E,6 | !4!F,6) | (!5!E,6 | !4!F,6) | !5!F,6 | !5!F,6 | %23
 !5!F,6 | !5!F,6 | [G,=B,]6 | x6 | x6 | x6 | x6 | x6 | x6 | x6 | x6 | x6 | x6 | x6 | x6 | x6 | x6 | %40
 x6 |[K:treble] !3!=C6 | x6 | !4!B,6 | A,A, A,A, A,A, | z A, A,A, A,A, | z A, A,A, ^CA, | %47
 z A, A,A, A,A, | x6 | x6 | x6 | x6 |] %52
V:6
 x6 | x6 | x6 | x6 | x6 | x6 |[K:bass] x6 | x6 |[K:treble] x6 | x6 | x6 | x6 | x6 |[K:bass] x6 | %14
 x6 | x4 |] x2 | x6 | x6 | x6 | x6 | x6 | x6 | x6 | x6 | x6 | x6 | x6 | x6 | z !5!F, F,F, F,F, | %30
 z !5!F, F,F, F,F, | z !5!F, F,F, F,F, | x6 | z !5!G, G,G, G,G, | z !5!G, G,G, G,G, | %35
 z !5!G, G,G, G,G, | x6 | z !5!A, A,A, A,A, | z !5!A, A,A, A,A, | z !5!A, A,A, A,A, | x6 | %41
[K:treble] x6 | x6 | x6 | x6 | x6 | x6 | x6 | x6 | x6 | x6 | x6 |] %52

